public/favicon.svg

<svg width="64" height="64" viewBox="0 0 64 64" fill="none" xmlns="http://www.w3.org/2000/svg">
  <title>Pearly</title>
  <path d="M20 16v32h6V36h12c6 0 10-4 10-10s-4-10-10-10H20zm6 6h11c3 0 5 2 5 4s-2 4-5 4H26v-8z" fill="#d6869d"/>
</svg>

<svg width="64" height="64" viewBox="0 0 64 64" fill="none" xmlns="http://www.w3.org/2000/svg">
  <!-- Background Circle with Gradient -->
  <defs>
    <linearGradient id="bgGradient" x1="0%" y1="0%" x2="100%" y2="100%">
      <stop offset="0%" style="stop-color:#ec4899;stop-opacity:1" />
      <stop offset="100%" style="stop-color:#f43f5e;stop-opacity:1" />
    </linearGradient>
    <linearGradient id="letterGradient" x1="0%" y1="0%" x2="0%" y2="100%">
      <stop offset="0%" style="stop-color:#ffffff;stop-opacity:1" />
      <stop offset="100%" style="stop-color:#fce7f3;stop-opacity:1" />
    </linearGradient>
  </defs>
  
  <!-- Background Circle -->
  <circle cx="32" cy="32" r="32" fill="url(#bgGradient)"/>
  
  <!-- Letter P -->
  <path d="M 20 16 L 20 48 L 26 48 L 26 36 L 38 36 C 44 36 48 32 48 26 C 48 20 44 16 38 16 L 20 16 Z M 26 22 L 37 22 C 40 22 42 24 42 26 C 42 28 40 30 37 30 L 26 30 L 26 22 Z" 
        fill="url(#letterGradient)" 
        stroke="#ffffff" 
        stroke-width="1"/>
  
  <!-- Sparkle Effect -->
  <circle cx="48" cy="16" r="2" fill="#ffffff" opacity="0.8"/>
  <circle cx="52" cy="20" r="1.5" fill="#fce7f3" opacity="0.6"/>
</svg>
